docs/inc/icons/gist-secret.svg

<svg height="16" viewBox="0 0 14 16" width="14" xmlns="http://www.w3.org/2000/svg"><path d="m8 10.5 1 3.5h-4l1-3.5-.75-1.5h3.5zm2-4.5h-6l-2 1h10zm-1-4-2 1-2-1-1 3h6zm4.03 7.75-3.03-.75 1 2-2 3h3.22c.45 0 .86-.31.97-.75l.56-2.28c.14-.53-.19-1.08-.72-1.22zm-9.03-.75-3.03.75c-.53.14-.86.69-.72 1.22l.56 2.28c.11.44.52.75.97.75h3.22l-2-3z" fill-rule="evenodd"/></svg>

<svg xmlns="http://www.w3.org/2000/svg" width="14" height="16" viewBox="0 0 14 16"><path fill-rule="evenodd" d="M8 10.5L9 14H5l1-3.5L5.25 9h3.5L8 10.5zM10 6H4L2 7h10l-2-1zM9 2L7 3 5 2 4 5h6L9 2zm4.03 7.75L10 9l1 2-2 3h3.22c.45 0 .86-.31.97-.75l.56-2.28c.14-.53-.19-1.08-.72-1.22zM4 9l-3.03.75c-.53.14-.86.69-.72 1.22l.56 2.28c.11.44.52.75.97.75H5l-2-3 1-2z"/></svg>
